src/assets/img/Visa.svg

<svg width="24" height="24" viewBox="0 0 24 24" fill="none" xmlns="http://www.w3.org/2000/svg">
<path d="M0 12C0 5.37258 5.37258 0 12 0C18.6274 0 24 5.37258 24 12C24 18.6274 18.6274 24 12 24C5.37258 24 0 18.6274 0 12Z" fill="white"/>
<path d="M11.9319 9.81033L10.9966 14.1831H9.86524L10.8007 9.81033H11.9319ZM16.6913 12.6339L17.2867 10.9918L17.6294 12.6339H16.6913ZM17.9539 14.1831H19L18.0861 9.81033H17.1212C16.9037 9.81033 16.7204 9.93642 16.6393 10.1309L14.9418 14.1831H16.1299L16.3658 13.5301H17.8169L17.9539 14.1831ZM15.0007 12.7556C15.0057 11.6015 13.4054 11.5376 13.4161 11.0219C13.4196 10.8652 13.569 10.6983 13.8958 10.6557C14.0578 10.6348 14.5048 10.6179 15.0115 10.8514L15.2096 9.92373C14.9375 9.82528 14.5873 9.73047 14.1515 9.73047C13.0331 9.73047 12.2464 10.3245 12.2401 11.1758C12.2329 11.8054 12.8021 12.1564 13.23 12.3661C13.6712 12.5804 13.8191 12.7178 13.8169 12.9093C13.8138 13.2027 13.4651 13.3326 13.1403 13.3375C12.5713 13.3464 12.2414 13.1837 11.9785 13.0611L11.7732 14.0198C12.0379 14.1409 12.5257 14.2464 13.0309 14.2518C14.2198 14.2518 14.9972 13.6647 15.0007 12.7556ZM10.3154 9.81033L8.48242 14.1831H7.28676L6.38469 10.6933C6.33 10.4787 6.2823 10.3998 6.11599 10.3092C5.84395 10.1614 5.39488 10.0233 5 9.9373L5.02675 9.81033H6.95168C7.19687 9.81033 7.41747 9.97349 7.47363 10.256L7.95014 12.7865L9.12692 9.81033H10.3154Z" fill="#1434CB"/>
</svg>

<svg xmlns="http://www.w3.org/2000/svg" width="24" height="24" fill="none"><path fill="#fff" d="M0 12C0 5.373 5.373 0 12 0s12 5.373 12 12-5.373 12-12 12S0 18.627 0 12Z"/><path fill="#1434CB" d="m11.932 9.81-.935 4.373H9.865l.936-4.373h1.13Zm4.76 2.824.595-1.642.342 1.642h-.938Zm1.262 1.55H19l-.914-4.374h-.965c-.217 0-.4.126-.482.32l-1.697 4.053h1.188l.236-.653h1.45l.138.653ZM15 12.755c.005-1.155-1.596-1.218-1.585-1.734.004-.157.153-.324.48-.366.162-.021.609-.038 1.115.195l.199-.927a3.048 3.048 0 0 0-1.059-.194c-1.118 0-1.905.595-1.91 1.446-.008.63.561.98.989 1.19.441.214.59.352.587.543-.003.294-.352.424-.677.428-.569.01-.899-.153-1.162-.276l-.205.959c.265.12.753.226 1.258.232 1.189 0 1.966-.587 1.97-1.496ZM10.315 9.81l-1.833 4.373H7.287l-.902-3.49c-.055-.214-.103-.293-.269-.384-.272-.148-.721-.286-1.116-.372l.027-.127h1.925c.245 0 .465.163.522.446l.476 2.53L9.127 9.81h1.188Z"/></svg>
